X: 5592
T: Busking In Blacksburg
R: reel
M: 4/4
K: Amixolydian
|:eAAc A2cd|eaag edcA|cdec dAAd|BGG2 G4|
eAAc A2cd|eaag edcA|Bddd BGGB|ABcG A4:|
|:Bggg gfed|cAA2 eAA2|cdec dAAd|BGG2 G4|
Bggg gfed|cAeA fAeA|Bddd BGGB|ABcG A4:|

